X: 1
T:Paddy on the Turnpike
M:C|
L:1/8
K:GDor
DG G^F G2 GA|BG dG _eG dG|DF FE F2 FG|AF cF dF cF|
DG G^F G2 GA|BA GA Bc de|fe fd cA FA|BG AF G4 :|
dg g^f g2 ga|ba ga bg af|df fg f2 fg|ag fg af gf|
dg g^f g2 ga|ba gf dc de|fe fd cA FA|BG AF G4 :|
